images/icons/airbnb.svg

<svg width="193" height="60" viewBox="0 0 193 60" fill="none" xmlns="http://www.w3.org/2000/svg">
<path d="M101.731 15.0751C101.731 17.2372 99.9896 18.979 97.8275 18.979C95.6654 18.979 93.9236 17.2372 93.9236 15.0751C93.9236 12.9129 95.6053 11.1712 97.8275 11.1712C100.05 11.2312 101.731 12.973 101.731 15.0751ZM85.6355 22.9429V23.9039C85.6355 23.9039 83.7736 21.5015 79.8097 21.5015C73.2632 21.5015 68.1582 26.4865 68.1582 33.3934C68.1582 40.2402 73.2032 45.2853 79.8097 45.2853C83.8337 45.2853 85.6355 42.8228 85.6355 42.8228V43.8438C85.6355 44.3243 85.9958 44.6847 86.4763 44.6847H91.3411V22.1021H86.4763C85.9958 22.1021 85.6355 22.5225 85.6355 22.9429ZM85.6355 37.4174C84.7346 38.7387 82.9328 39.8799 80.7707 39.8799C76.9268 39.8799 73.9839 37.4775 73.9839 33.3934C73.9839 29.3093 76.9268 26.9069 80.7707 26.9069C82.8727 26.9069 84.7946 28.1081 85.6355 29.3694V37.4174ZM94.9446 22.1021H100.71V44.6847H94.9446V22.1021ZM181.07 21.5015C177.106 21.5015 175.244 23.9039 175.244 23.9039V11.2312H169.478V44.6847H174.343C174.824 44.6847 175.184 44.2643 175.184 43.8438V42.8228C175.184 42.8228 177.046 45.2853 181.01 45.2853C187.556 45.2853 192.661 40.2402 192.661 33.3934C192.661 26.5465 187.556 21.5015 181.07 21.5015ZM180.109 39.8198C177.887 39.8198 176.145 38.6787 175.244 37.3574V29.3093C176.145 28.1081 178.067 26.8468 180.109 26.8468C183.953 26.8468 186.896 29.2492 186.896 33.3333C186.896 37.4174 183.953 39.8198 180.109 39.8198ZM166.475 31.2913V44.7447H160.71V31.952C160.71 28.2282 159.508 26.7267 156.265 26.7267C154.524 26.7267 152.722 27.6276 151.581 28.9489V44.6847H145.815V22.1021H150.379C150.86 22.1021 151.22 22.5225 151.22 22.9429V23.9039C152.902 22.1622 155.124 21.5015 157.346 21.5015C159.869 21.5015 161.971 22.2222 163.653 23.6637C165.695 25.3453 166.475 27.5075 166.475 31.2913ZM131.821 21.5015C127.857 21.5015 125.995 23.9039 125.995 23.9039V11.2312H120.23V44.6847H125.094C125.575 44.6847 125.935 44.2643 125.935 43.8438V42.8228C125.935 42.8228 127.797 45.2853 131.761 45.2853C138.307 45.2853 143.413 40.2402 143.413 33.3934C143.473 26.5465 138.368 21.5015 131.821 21.5015ZM130.86 39.8198C128.638 39.8198 126.896 38.6787 125.995 37.3574V29.3093C126.896 28.1081 128.818 26.8468 130.86 26.8468C134.704 26.8468 137.647 29.2492 137.647 33.3333C137.647 37.4174 134.704 39.8198 130.86 39.8198ZM115.245 21.5015C116.986 21.5015 117.887 21.8018 117.887 21.8018V27.1471C117.887 27.1471 113.083 25.5255 110.08 28.9489V44.7447H104.314V22.1021H109.179C109.659 22.1021 110.02 22.5225 110.02 22.9429V23.9039C111.101 22.6426 113.443 21.5015 115.245 21.5015ZM55.3655 42.6426C55.0653 41.9219 54.765 41.1411 54.4647 40.4805C53.9842 39.3994 53.5037 38.3784 53.0833 37.4174L53.0232 37.3574C48.8791 28.3483 44.4347 19.2192 39.7501 10.2102L39.5699 9.84985C39.0895 8.94895 38.609 7.98799 38.1285 7.02703C37.5279 5.94595 36.9273 4.8048 35.9664 3.72372C34.0445 1.32132 31.2818 0 28.3388 0C25.3359 0 22.6332 1.32132 20.6513 3.6036C19.7504 4.68468 19.0897 5.82583 18.4891 6.90691C18.0086 7.86787 17.5282 8.82883 17.0477 9.72973L16.8675 10.0901C12.2429 19.0991 7.73849 28.2282 3.5944 37.2372L3.53434 37.3574C3.11393 38.3183 2.63345 39.3393 2.15298 40.4204C1.85268 41.0811 1.55238 41.8018 1.25209 42.5826C0.471314 44.8048 0.231077 46.9069 0.531374 49.0691C1.19203 53.5736 4.19499 57.3574 8.33909 59.039C9.90063 59.6997 11.5222 60 13.2039 60C13.6844 60 14.285 59.9399 14.7654 59.8799C16.7474 59.6396 18.7894 58.979 20.7714 57.8378C23.2338 56.4565 25.5761 54.4745 28.2187 51.5916C30.8613 54.4745 33.2637 56.4565 35.6661 57.8378C37.648 58.979 39.6901 59.6396 41.672 59.8799C42.1525 59.9399 42.7531 60 43.2336 60C44.9152 60 46.5969 59.6997 48.0984 59.039C52.3025 57.3574 55.2454 53.5135 55.9061 49.0691C56.3866 46.967 56.1463 44.8649 55.3655 42.6426ZM28.2788 45.7658C25.0356 41.6817 22.9335 37.8378 22.2128 34.5946C21.9125 33.2132 21.8524 32.012 22.0326 30.9309C22.1527 29.97 22.5131 29.1291 22.9936 28.4084C24.1347 26.7868 26.0566 25.7658 28.2788 25.7658C30.501 25.7658 32.4829 26.7267 33.564 28.4084C34.0445 29.1291 34.4048 29.97 34.525 30.9309C34.7051 32.012 34.6451 33.2733 34.3448 34.5946C33.6241 37.7778 31.522 41.6216 28.2788 45.7658ZM52.2425 48.5886C51.822 51.7117 49.72 54.4144 46.7771 55.6156C45.3356 56.2162 43.7741 56.3964 42.2126 56.2162C40.7111 56.036 39.2096 55.5556 37.648 54.6547C35.4859 53.4535 33.3238 51.5916 30.8013 48.8288C34.7652 43.964 37.1676 39.5195 38.0685 35.5556C38.4889 33.6937 38.5489 32.012 38.3688 30.4505C38.1285 28.9489 37.588 27.5676 36.7472 26.3664C34.8853 23.6637 31.7622 22.1021 28.2788 22.1021C24.7953 22.1021 21.6723 23.7237 19.8104 26.3664C18.9696 27.5676 18.4291 28.9489 18.1888 30.4505C17.9486 32.012 18.0086 33.7538 18.4891 35.5556C19.39 39.5195 21.8524 44.024 25.7563 48.8889C23.2939 51.6517 21.0717 53.5135 18.9095 54.7147C17.348 55.6156 15.8465 56.0961 14.345 56.2763C12.7234 56.4565 11.1619 56.2162 9.78051 55.6757C6.8376 54.4745 4.73553 51.7718 4.31511 48.6486C4.13493 47.1471 4.25505 45.6456 4.85565 43.964C5.03582 43.3634 5.33612 42.7628 5.63642 42.042C6.05683 41.0811 6.53731 40.0601 7.01778 39.039L7.07784 38.9189C11.2219 29.97 15.6663 20.8408 20.2909 11.952L20.4711 11.5916C20.9515 10.6907 21.432 9.72973 21.9125 8.82883C22.393 7.86787 22.9335 6.96697 23.5942 6.18619C24.8554 4.74474 26.5371 3.96396 28.3989 3.96396C30.2607 3.96396 31.9424 4.74474 33.2037 6.18619C33.8643 6.96697 34.4048 7.86787 34.8853 8.82883C35.3658 9.72973 35.8463 10.6907 36.3267 11.5916L36.5069 11.952C41.0714 20.9009 45.5158 30.03 49.6599 38.979V39.039C50.1404 40 50.5608 41.0811 51.0413 42.042C51.3416 42.7628 51.6419 43.3634 51.822 43.964C52.3025 45.5255 52.4827 47.027 52.2425 48.5886Z" fill="#424147"/>
</svg>

<svg width="193" height="60" fill="none" xmlns="http://www.w3.org/2000/svg"><path d="M101.731 15.075a3.896 3.896 0 0 1-3.903 3.904 3.896 3.896 0 0 1-3.904-3.904c0-2.162 1.681-3.904 3.903-3.904 2.223.06 3.904 1.802 3.904 3.904Zm-16.096 7.868v.96s-1.861-2.401-5.825-2.401c-6.547 0-11.652 4.985-11.652 11.891 0 6.847 5.045 11.892 11.652 11.892 4.024 0 5.825-2.462 5.825-2.462v1.02c0 .481.36.842.841.842h4.865V22.102h-4.865c-.48 0-.84.42-.84.84Zm0 14.474c-.9 1.322-2.702 2.463-4.864 2.463-3.844 0-6.787-2.403-6.787-6.487s2.943-6.486 6.787-6.486c2.102 0 4.024 1.201 4.864 2.462v8.048Zm9.31-15.315h5.765v22.583h-5.765V22.102Zm86.125-.6c-3.964 0-5.826 2.402-5.826 2.402V11.23h-5.766v33.454h4.865c.481 0 .841-.42.841-.841v-1.021s1.862 2.462 5.826 2.462c6.546 0 11.651-5.045 11.651-11.892 0-6.846-5.105-11.892-11.591-11.892Zm-.961 18.318c-2.222 0-3.964-1.141-4.865-2.463V29.31c.901-1.2 2.823-2.462 4.865-2.462 3.844 0 6.787 2.402 6.787 6.486s-2.943 6.487-6.787 6.487Zm-13.634-8.529v13.454h-5.765V31.952c0-3.724-1.202-5.225-4.445-5.225-1.741 0-3.543.9-4.684 2.222v15.736h-5.766V22.102h4.564c.481 0 .841.42.841.84v.962c1.682-1.742 3.904-2.402 6.126-2.402 2.523 0 4.625.72 6.307 2.162 2.042 1.681 2.822 3.843 2.822 7.627Zm-34.654-9.79c-3.964 0-5.826 2.403-5.826 2.403V11.23h-5.765v33.454h4.864c.481 0 .841-.42.841-.841v-1.021s1.862 2.462 5.826 2.462c6.546 0 11.652-5.045 11.652-11.892.06-6.846-5.045-11.892-11.592-11.892Zm-.961 18.319c-2.222 0-3.964-1.141-4.865-2.463V29.31c.901-1.2 2.823-2.462 4.865-2.462 3.844 0 6.787 2.402 6.787 6.486s-2.943 6.487-6.787 6.487ZM115.245 21.5c1.741 0 2.642.3 2.642.3v5.346s-4.804-1.621-7.807 1.802v15.796h-5.766V22.102h4.865c.48 0 .841.42.841.84v.962c1.081-1.261 3.423-2.402 5.225-2.402Zm-59.88 21.142c-.3-.721-.6-1.502-.9-2.163-.48-1.08-.961-2.102-1.382-3.063l-.06-.06A626.869 626.869 0 0 0 39.75 10.21l-.18-.36c-.48-.901-.961-1.862-1.441-2.823-.601-1.081-1.202-2.222-2.163-3.303C34.044 1.32 31.282 0 28.34 0c-3.003 0-5.706 1.321-7.688 3.604-.9 1.08-1.561 2.222-2.162 3.303-.48.96-.96 1.922-1.441 2.823l-.18.36c-4.625 9.01-9.13 18.138-13.274 27.147l-.06.12c-.42.961-.9 1.982-1.381 3.063-.3.661-.6 1.382-.9 2.163C.47 44.805.23 46.907.53 49.069a12.764 12.764 0 0 0 7.808 9.97c1.562.66 3.183.961 4.865.961.48 0 1.081-.06 1.561-.12 1.982-.24 4.024-.901 6.006-2.042 2.463-1.382 4.805-3.364 7.448-6.246 2.642 2.883 5.045 4.864 7.447 6.246 1.982 1.141 4.024 1.802 6.006 2.042.48.06 1.081.12 1.562.12 1.681 0 3.363-.3 4.864-.961 4.205-1.682 7.147-5.526 7.808-9.97.48-2.102.24-4.204-.54-6.426ZM28.28 45.766c-3.243-4.084-5.346-7.928-6.066-11.171-.3-1.382-.36-2.583-.18-3.664.12-.961.48-1.802.96-2.523 1.142-1.621 3.064-2.642 5.286-2.642 2.222 0 4.204.96 5.285 2.642.48.721.84 1.562.961 2.523.18 1.081.12 2.342-.18 3.664-.72 3.183-2.823 7.027-6.066 11.17Zm23.963 2.823c-.42 3.123-2.522 5.825-5.465 7.027-1.441.6-3.003.78-4.564.6-1.502-.18-3.003-.66-4.565-1.561-2.162-1.202-4.324-3.063-6.847-5.826 3.964-4.865 6.367-9.31 7.268-13.273.42-1.862.48-3.544.3-5.105-.24-1.502-.781-2.883-1.622-4.085-1.862-2.702-4.985-4.264-8.468-4.264-3.484 0-6.607 1.622-8.469 4.264-.84 1.202-1.38 2.583-1.621 4.085a12.47 12.47 0 0 0 .3 5.105c.901 3.964 3.363 8.468 7.267 13.333-2.462 2.763-4.684 4.624-6.846 5.826-1.562.9-3.063 1.381-4.565 1.561a9.607 9.607 0 0 1-4.564-.6c-2.943-1.202-5.045-3.904-5.466-7.027-.18-1.502-.06-3.003.54-4.685.18-.6.481-1.201.781-1.922.42-.96.901-1.982 1.382-3.003l.06-.12c4.144-8.949 8.588-18.078 13.213-26.967l.18-.36c.48-.901.961-1.862 1.442-2.763.48-.961 1.02-1.862 1.681-2.643 1.261-1.441 2.943-2.222 4.805-2.222 1.862 0 3.543.78 4.805 2.222.66.781 1.2 1.682 1.681 2.643.48.9.961 1.862 1.442 2.763l.18.36A796.638 796.638 0 0 1 49.66 38.979v.06c.48.961.9 2.042 1.381 3.003.3.72.6 1.321.781 1.922.48 1.562.66 3.063.42 4.625Z" fill="#424147"/></svg>
